img/decor/hand-cursor-pointer.svg

<svg width="22" height="23" viewBox="0 0 22 23" fill="none" xmlns="http://www.w3.org/2000/svg">
<g filter="url(#filter0_d)">
<path fill-rule="evenodd" clip-rule="evenodd" d="M6.2856 14.309C6.0016 13.95 5.6566 13.216 5.0426 12.325C4.6946 11.821 3.8316 10.872 3.5746 10.39C3.3516 9.96403 3.3756 9.77303 3.4286 9.42003C3.5226 8.79203 4.1666 8.30303 4.8536 8.36903C5.3726 8.41803 5.8126 8.76103 6.2086 9.08503C6.4476 9.28003 6.7416 9.65903 6.9186 9.87303C7.0816 10.069 7.1216 10.15 7.2956 10.382C7.5256 10.689 7.5976 10.841 7.5096 10.503C7.4386 10.007 7.3226 9.16003 7.1546 8.41103C7.0266 7.84303 6.9956 7.75403 6.8736 7.31803C6.7446 6.85403 6.6786 6.52903 6.5576 6.03703C6.4736 5.68903 6.3226 4.97803 6.2816 4.57803C6.2246 4.03103 6.1946 3.13903 6.5456 2.72903C6.8206 2.40803 7.4516 2.31103 7.8426 2.50903C8.3546 2.76803 8.6456 3.51203 8.7786 3.80903C9.0176 4.34303 9.1656 4.96003 9.2946 5.77003C9.4586 6.80103 9.7606 8.23203 9.7706 8.53303C9.7946 8.16403 9.7026 7.38703 9.7666 7.03303C9.8246 6.71203 10.0946 6.33903 10.4326 6.23803C10.7186 6.15303 11.0536 6.12203 11.3486 6.18303C11.6616 6.24703 11.9916 6.47103 12.1146 6.68203C12.4766 7.30603 12.4836 8.58103 12.4986 8.51303C12.5846 8.13703 12.5696 7.28403 12.7826 6.92903C12.9226 6.69503 13.2796 6.48403 13.4696 6.45003C13.7636 6.39803 14.1246 6.38203 14.4336 6.44203C14.6826 6.49103 15.0196 6.78703 15.1106 6.92903C15.3286 7.27303 15.4526 8.24603 15.4896 8.58703C15.5046 8.72803 15.5636 8.19503 15.7826 7.85103C16.1886 7.21203 17.6256 7.08803 17.6806 8.49003C17.7056 9.14403 17.7006 9.11403 17.7006 9.55403C17.7006 10.071 17.6886 10.382 17.6606 10.756C17.6296 11.156 17.5436 12.06 17.4186 12.498C17.3326 12.799 17.0476 13.476 16.7666 13.882C16.7666 13.882 15.6926 15.132 15.5756 15.695C15.4576 16.257 15.4966 16.261 15.4736 16.66C15.4506 17.058 15.5946 17.582 15.5946 17.582C15.5946 17.582 14.7926 17.686 14.3606 17.617C13.9696 17.554 13.4856 16.776 13.3606 16.538C13.1886 16.21 12.8216 16.273 12.6786 16.515C12.4536 16.898 11.9696 17.585 11.6276 17.628C10.9596 17.712 9.5736 17.659 8.4886 17.648C8.4886 17.648 8.6736 16.637 8.2616 16.29C7.9566 16.031 7.4316 15.506 7.1176 15.23L6.2856 14.309Z" fill="white"/>
<path fill-rule="evenodd" clip-rule="evenodd" d="M6.2856 14.309C6.0016 13.95 5.6566 13.216 5.0426 12.325C4.6946 11.821 3.8316 10.872 3.5746 10.39C3.3516 9.96403 3.3756 9.77303 3.4286 9.42003C3.5226 8.79203 4.1666 8.30303 4.8536 8.36903C5.3726 8.41803 5.8126 8.76103 6.2086 9.08503C6.4476 9.28003 6.7416 9.65903 6.9186 9.87303C7.0816 10.069 7.1216 10.15 7.2956 10.382C7.5256 10.689 7.5976 10.841 7.5096 10.503C7.4386 10.007 7.3226 9.16003 7.1546 8.41103C7.0266 7.84303 6.9956 7.75403 6.8736 7.31803C6.7446 6.85403 6.6786 6.52903 6.5576 6.03703C6.4736 5.68903 6.3226 4.97803 6.2816 4.57803C6.2246 4.03103 6.1946 3.13903 6.5456 2.72903C6.8206 2.40803 7.4516 2.31103 7.8426 2.50903C8.3546 2.76803 8.6456 3.51203 8.7786 3.80903C9.0176 4.34303 9.1656 4.96003 9.2946 5.77003C9.4586 6.80103 9.7606 8.23203 9.7706 8.53303C9.7946 8.16403 9.7026 7.38703 9.7666 7.03303C9.8246 6.71203 10.0946 6.33903 10.4326 6.23803C10.7186 6.15303 11.0536 6.12203 11.3486 6.18303C11.6616 6.24703 11.9916 6.47103 12.1146 6.68203C12.4766 7.30603 12.4836 8.58103 12.4986 8.51303C12.5846 8.13703 12.5696 7.28403 12.7826 6.92903C12.9226 6.69503 13.2796 6.48403 13.4696 6.45003C13.7636 6.39803 14.1246 6.38203 14.4336 6.44203C14.6826 6.49103 15.0196 6.78703 15.1106 6.92903C15.3286 7.27303 15.4526 8.24603 15.4896 8.58703C15.5046 8.72803 15.5636 8.19503 15.7826 7.85103C16.1886 7.21203 17.6256 7.08803 17.6806 8.49003C17.7056 9.14403 17.7006 9.11403 17.7006 9.55403C17.7006 10.071 17.6886 10.382 17.6606 10.756C17.6296 11.156 17.5436 12.06 17.4186 12.498C17.3326 12.799 17.0476 13.476 16.7666 13.882C16.7666 13.882 15.6926 15.132 15.5756 15.695C15.4576 16.257 15.4966 16.261 15.4736 16.66C15.4506 17.058 15.5946 17.582 15.5946 17.582C15.5946 17.582 14.7926 17.686 14.3606 17.617C13.9696 17.554 13.4856 16.776 13.3606 16.538C13.1886 16.21 12.8216 16.273 12.6786 16.515C12.4536 16.898 11.9696 17.585 11.6276 17.628C10.9596 17.712 9.5736 17.659 8.4886 17.648C8.4886 17.648 8.6736 16.637 8.2616 16.29C7.9566 16.031 7.4316 15.506 7.1176 15.23L6.2856 14.309Z" stroke="black" stroke-width="0.75" stroke-linecap="round" stroke-linejoin="round"/>
<path d="M14.5205 14.6636V11.2046" stroke="black" stroke-width="0.75" stroke-linecap="round"/>
<path d="M12.5049 14.6753L12.4889 11.2023" stroke="black" stroke-width="0.75" stroke-linecap="round"/>
<path d="M10.5088 11.2339L10.5298 14.6599" stroke="black" stroke-width="0.75" stroke-linecap="round"/>
</g>
<defs>
<filter id="filter0_d" x="0" y="0" width="22" height="22.0496" filterUnits="userSpaceOnUse" color-interpolation-filters="sRGB">
<feFlood flood-opacity="0" result="BackgroundImageFix"/>
<feColorMatrix in="SourceAlpha" type="matrix" values="0 0 0 0 0 0 0 0 0 0 0 0 0 0 0 0 0 0 127 0"/>
<feOffset dy="1"/>
<feGaussianBlur stdDeviation="1.5"/>
<feColorMatrix type="matrix" values="0 0 0 0 0 0 0 0 0 0 0 0 0 0 0 0 0 0 0.35 0"/>
<feBlend mode="normal" in2="BackgroundImageFix" result="effect1_dropShadow"/>
<feBlend mode="normal" in="SourceGraphic" in2="effect1_dropShadow" result="shape"/>
</filter>
</defs>
</svg>

<svg width="22" height="23" fill="none" xmlns="http://www.w3.org/2000/svg"><g filter="url(#filter0_d)"><path fill-rule="evenodd" clip-rule="evenodd" d="M6.29 14.3c-.29-.35-.63-1.08-1.25-1.98-.35-.5-1.2-1.45-1.47-1.93-.22-.43-.2-.62-.14-.97.1-.63.74-1.12 1.42-1.05.52.05.96.4 1.36.72.24.19.53.57.7.78.17.2.21.28.39.51.23.3.3.46.21.12-.07-.5-.19-1.34-.36-2.09-.12-.57-.15-.66-.28-1.1-.13-.46-.2-.78-.31-1.27-.09-.35-.24-1.06-.28-1.46-.06-.55-.09-1.44.27-1.85.27-.32.9-.42 1.3-.22.5.26.8 1 .93 1.3.24.53.39 1.15.51 1.96.17 1.03.47 2.46.48 2.76.02-.37-.07-1.14 0-1.5.05-.32.32-.7.66-.8.29-.08.62-.1.92-.05.31.07.64.3.76.5.37.63.37 1.9.39 1.83.08-.37.07-1.23.28-1.58.14-.23.5-.45.69-.48.3-.05.65-.07.96 0 .25.04.59.34.68.48.22.34.34 1.32.38 1.66.01.14.07-.4.3-.74.4-.64 1.84-.76 1.9.64.02.65.01.62.01 1.06a14.62 14.62 0 01-.28 2.95c-.09.3-.37.98-.65 1.38 0 0-1.08 1.25-1.2 1.81-.11.57-.07.57-.1.97-.02.4.12.92.12.92s-.8.1-1.23.04c-.39-.07-.87-.84-1-1.08-.17-.33-.54-.27-.68-.02-.23.38-.71 1.07-1.05 1.1-.67.1-2.06.04-3.14.03 0 0 .18-1.01-.23-1.36-.3-.26-.83-.78-1.14-1.06l-.83-.92z" fill="#fff"/><path clip-rule="evenodd" d="M6.29 14.3c-.29-.35-.63-1.08-1.25-1.98-.35-.5-1.2-1.45-1.47-1.93-.22-.43-.2-.62-.14-.97.1-.63.74-1.12 1.42-1.05.52.05.96.4 1.36.72.24.19.53.57.7.78.17.2.21.28.39.51.23.3.3.46.21.12-.07-.5-.19-1.34-.36-2.09-.12-.57-.15-.66-.28-1.1-.13-.46-.2-.78-.31-1.27-.09-.35-.24-1.06-.28-1.46-.06-.55-.09-1.44.27-1.85.27-.32.9-.42 1.3-.22.5.26.8 1 .93 1.3.24.53.39 1.15.51 1.96.17 1.03.47 2.46.48 2.76.02-.37-.07-1.14 0-1.5.05-.32.32-.7.66-.8.29-.08.62-.1.92-.05.31.07.64.3.76.5.37.63.37 1.9.39 1.83.08-.37.07-1.23.28-1.58.14-.23.5-.45.69-.48.3-.05.65-.07.96 0 .25.04.59.34.68.48.22.34.34 1.32.38 1.66.01.14.07-.4.3-.74.4-.64 1.84-.76 1.9.64.02.65.01.62.01 1.06a14.62 14.62 0 01-.28 2.95c-.09.3-.37.98-.65 1.38 0 0-1.08 1.25-1.2 1.81-.11.57-.07.57-.1.97-.02.4.12.92.12.92s-.8.1-1.23.04c-.39-.07-.87-.84-1-1.08-.17-.33-.54-.27-.68-.02-.23.38-.71 1.07-1.05 1.1-.67.1-2.06.04-3.14.03 0 0 .18-1.01-.23-1.36-.3-.26-.83-.78-1.14-1.06l-.83-.92z" stroke="#000" stroke-width=".75" stroke-linecap="round" stroke-linejoin="round"/><path d="M14.52 14.66V11.2M12.5 14.68l-.01-3.48M10.5 11.23l.03 3.43" stroke="#000" stroke-width=".75" stroke-linecap="round"/></g><defs><filter id="filter0_d" x="0" y="0" width="22" height="22.05" filterUnits="userSpaceOnUse" color-interpolation-filters="sRGB"><feFlood flood-opacity="0" result="BackgroundImageFix"/><feColorMatrix in="SourceAlpha" values="0 0 0 0 0 0 0 0 0 0 0 0 0 0 0 0 0 0 127 0"/><feOffset dy="1"/><feGaussianBlur stdDeviation="1.5"/><feColorMatrix values="0 0 0 0 0 0 0 0 0 0 0 0 0 0 0 0 0 0 0.35 0"/><feBlend in2="BackgroundImageFix" result="effect1_dropShadow"/><feBlend in="SourceGraphic" in2="effect1_dropShadow" result="shape"/></filter></defs></svg>
